src/ex10_html-css-fundamentals-part2/images/sprite.svg

<svg display="none" xmlns="http://www.w3.org/2000/svg">
    <symbol id="burger" viewBox="0 0.417 61 10.167" width="61px" height="11px">
        <path fill="#3687C4" fill-rule="evenodd" d="M1 1h60v10H1V1z"/>
    </symbol>
    <symbol id="divide" viewBox="0.4791259765625 0 1.0416667461395264 25">
        <g>
            <path fill="#bcbec3" stroke="none" fill-rule="evenodd" d=" M 1.000077247619629 1.0001542568206787 C 1.000077247619629 1.0001542568206787 2.000004768371582 1.0001542568206787 2.000004768371582 1.0001542568206787 C 2.000004768371582 1.0001542568206787 2.000004768371582 25.00007176399231 2.000004768371582 25.00007176399231 C 2.000004768371582 25.00007176399231 1.000077247619629 25.00007176399231 1.000077247619629 25.00007176399231 C 1.000077247619629 25.00007176399231 1.000077247619629 1.0001542568206787 1.000077247619629 1.0001542568206787 Z"></path>
        </g>
    </symbol>
    <symbol id="ampersand" viewBox="623.249 576.992 87.247 90.187">
        <g>
            <path fill="#bbedff" stroke="none" fill-rule="evenodd" d=" M 692.4343109130859 648.3976125717163 C 695.6342458724976 644.437313079834 698.4947919845581 639.8871839046478 701.0149955749512 634.7463130950928 C 703.5351991653442 629.6067595481873 705.5153846740723 624.3355810642242 706.9554328918457 618.9351081848145 C 706.9554328918457 618.9351081848145 687.8739595413208 618.9351081848145 687.8739595413208 618.9351081848145 C 685.7935190200806 626.2959718704224 683.3332777023315 632.3163688182831 680.4933547973633 636.9967043399811 C 680.4933547973633 636.9967043399811 663.4520292282104 620.3751802444458 663.4520292282104 620.3751802444458 C 669.6118116378784 616.8152272701263 674.0728616714478 613.064980506897 676.8330335617065 609.1242372989655 C 679.5933246612549 605.1847100257874 680.9734106063843 600.834196805954 680.9734106063843 596.073305606842 C 680.9734106063843 590.2736008167267 678.7428855895996 585.6429159641266 674.2829084396362 582.1822643280029 C 669.8218584060669 578.7226259708405 663.8720035552979 576.9919455051422 656.4314365386963 576.9919455051422 C 648.6308574676514 576.9919455051422 642.3996686935425 578.8521230220795 637.739896774292 582.5723767280579 C 633.0792903900146 586.2927317619324 630.7493448257446 591.1934554576874 630.7493448257446 597.2733318805695 C 630.7493448257446 600.993686914444 631.4291954040527 604.4243454933167 632.7896118164062 607.5642943382263 C 634.1490745544434 610.705155134201 636.3298892974854 613.9950692653656 639.3300294876099 617.4351513385773 C 633.4496736526489 620.7951843738556 629.2989253997803 624.4059026241302 626.879096031189 628.2659888267517 C 624.4583129882812 632.126784324646 623.248815536499 636.7970883846283 623.248815536499 642.2770023345947 C 623.248815536499 649.9184429645538 626.1084079742432 655.978661775589 631.8295001983643 660.4584693908691 C 637.549638748169 664.9390876293182 645.2902555465698 667.1791434288025 655.0513505935669 667.1791434288025 C 664.6914482116699 667.1791434288025 673.3322143554688 664.5190834999084 680.9734106063843 659.1982543468475 C 680.9734106063843 659.1982543468475 687.8739595413208 665.9788131713867 687.8739595413208 665.9788131713867 C 687.8739595413208 665.9788131713867 710.4957103729248 665.9788131713867 710.4957103729248 665.9788131713867 C 710.4957103729248 665.9788131713867 692.4343109130859 648.3976125717163 692.4343109130859 648.3976125717163 Z M 644.5205211639404 633.8764131069183 C 645.8603143692017 631.956148147583 647.6904153823853 630.1168441772461 650.0109434127808 628.3559679985046 C 650.0109434127808 628.3559679985046 669.93248462677 648.1575667858124 669.93248462677 648.1575667858124 C 665.8915281295776 650.5981504917145 661.3517999649048 651.8178343772888 656.3113927841187 651.8178343772888 C 652.2704362869263 651.8178343772888 648.9608287811279 650.7977664470673 646.3806629180908 648.7576305866241 C 643.8003778457642 646.717494726181 642.5102949142456 643.977689743042 642.5102949142456 640.5369997024536 C 642.5102949142456 638.0167722702026 643.1797742843628 635.7965767383575 644.5205211639404 633.8764131069183 Z M 661.2918376922607 604.5040905475616 C 659.4513654708862 606.3642680644989 656.8111181259155 608.254337310791 653.3712148666382 610.1745009422302 C 649.5702266693115 605.9348404407501 647.6707458496094 602.0541846752167 647.6707458496094 598.533445596695 C 647.6707458496094 596.173620223999 648.4404802322388 594.3538725376129 649.980902671814 593.0731892585754 C 651.5203714370728 591.793417930603 653.6308526992798 591.1529242992401 656.3113927841187 591.1529242992401 C 658.591628074646 591.1529242992401 660.4517698287964 591.7632222175598 661.8918180465698 592.9832100868225 C 663.3319854736328 594.2038059234619 664.0520095825195 595.8736896514893 664.0520095825195 597.9935705661774 C 664.0520095825195 600.4742801189423 663.1313562393188 602.6439130306244 661.2918376922607 604.5040905475616 Z"></path>
        </g>
    </symbol>
    <symbol id="slide1" viewBox="0 0.5845947265625 33 28.83089256286621">
       <g>
            <path fill="#adff63" stroke="none" fill-rule="evenodd" d=" M 31.19564151763916 5.111703872680664 C 27.565957069396973 1.5215551853179932 21.76404094696045 1.4465725421905518 18.003583908081055 4.824033975601196 C 14.243722915649414 1.4465725421905518 8.442879676818848 1.5215551853179932 4.811764717102051 5.111703872680664 C 1.0707387924194336 8.809969425201416 1.0707387924194336 14.805439710617065 4.811764717102051 18.50461721420288 C 5.881429672241211 19.56166982650757 15.864969253540039 29.42979097366333 15.864969253540039 29.42979097366333 C 17.04752540588379 30.59870958328247 18.960476875305176 30.59870958328247 20.143033027648926 29.42979097366333 C 20.143033027648926 29.42979097366333 31.074524879455566 18.624792098999023 31.19564151763916 18.50461721420288 C 34.93666744232178 14.805439710617065 34.93666744232178 8.809969425201416 31.19564151763916 5.111703872680664 Z M 29.76870632171631 17.094639539718628 C 29.76870632171631 17.094639539718628 18.716217041015625 28.019914627075195 18.716217041015625 28.019914627075195 C 18.323780059814453 28.409115076065063 17.682910919189453 28.409115076065063 17.291189193725586 28.019914627075195 C 17.291189193725586 28.019914627075195 6.238699913024902 17.094639539718628 6.238699913024902 17.094639539718628 C 3.288508415222168 14.179638624191284 3.288508415222168 9.436074495315552 6.238699913024902 6.520668268203735 C 9.08255672454834 3.709629774093628 13.654709815979004 3.6112403869628906 16.64793586730957 6.299368143081665 C 16.64793586730957 6.299368143081665 18.003583908081055 7.517126798629761 18.003583908081055 7.517126798629761 C 18.003583908081055 7.517126798629761 19.359827995300293 6.299368143081665 19.359827995300293 6.299368143081665 C 22.35305404663086 3.6112403869628906 26.92616081237793 3.709629774093628 29.76870632171631 6.520668268203735 C 32.719136238098145 9.436074495315552 32.719136238098145 14.179638624191284 29.76870632171631 17.094639539718628 Z M 11.25538444519043 7.344565391540527 C 11.253477096557617 7.344565391540527 11.253477096557617 7.345578670501709 11.251331329345703 7.345578670501709 C 8.906842231750488 7.347402572631836 7.005334854125977 9.245882034301758 7.005334854125977 11.587975025177002 C 7.005334854125977 11.587975025177002 7.005334854125977 11.587975025177002 7.005334854125977 11.587975025177002 C 7.005334854125977 11.863890886306763 7.228852272033691 12.087116241455078 7.505417823791504 12.087116241455078 C 7.781864166259766 12.087116241455078 8.00538158416748 11.863890886306763 8.00538158416748 11.587975025177002 C 8.00538158416748 11.587975025177002 8.00538158416748 11.587063074111938 8.00538158416748 11.587063074111938 C 8.00538158416748 9.795788526535034 9.460569381713867 8.34284782409668 11.254311561584473 8.34284782409668 C 11.254311561584473 8.34284782409668 11.25538444519043 8.34284782409668 11.25538444519043 8.34284782409668 C 11.531830787658691 8.34284782409668 11.755348205566406 8.119622468948364 11.755348205566406 7.8437066078186035 C 11.755348205566406 7.567892074584961 11.531830787658691 7.344565391540527 11.25538444519043 7.344565391540527 Z"></path>
       </g>
    </symbol>
    <symbol id="slide2" viewBox="0 0.5845947265625 33 28.83089256286621">
        <g>
            <path fill="#cc9800" stroke="none" fill-rule="evenodd" d=" M 31.19566822052002 5.111703872680664 C 27.56586456298828 1.5215551853179932 21.763948440551758 1.4465725421905518 18.003610610961914 4.824033975601196 C 14.243749618530273 1.4465725421905518 8.442787170410156 1.5215551853179932 4.81179141998291 5.111703872680664 C 1.070765495300293 8.809969425201416 1.070765495300293 14.805439710617065 4.81179141998291 18.50461721420288 C 5.88145637512207 19.56166982650757 15.864876747131348 29.42979097366333 15.864876747131348 29.42979097366333 C 17.04755210876465 30.59870958328247 18.960503578186035 30.59870958328247 20.143059730529785 29.42979097366333 C 20.143059730529785 29.42979097366333 31.074432373046875 18.624792098999023 31.19566822052002 18.50461721420288 C 34.93669414520264 14.805439710617065 34.93669414520264 8.809969425201416 31.19566822052002 5.111703872680664 Z M 29.768733024597168 17.094639539718628 C 29.768733024597168 17.094639539718628 18.716243743896484 28.019914627075195 18.716243743896484 28.019914627075195 C 18.32368755340576 28.409115076065063 17.68281841278076 28.409115076065063 17.291215896606445 28.019914627075195 C 17.291215896606445 28.019914627075195 6.238726615905762 17.094639539718628 6.238726615905762 17.094639539718628 C 3.2885351181030273 14.179638624191284 3.2885351181030273 9.436074495315552 6.238726615905762 6.520668268203735 C 9.0825834274292 3.709629774093628 13.654736518859863 3.6112403869628906 16.64796257019043 6.299368143081665 C 16.64796257019043 6.299368143081665 18.003610610961914 7.517126798629761 18.003610610961914 7.517126798629761 C 18.003610610961914 7.517126798629761 19.3597354888916 6.299368143081665 19.3597354888916 6.299368143081665 C 22.352961540222168 3.6112403869628906 26.92618751525879 3.709629774093628 29.768733024597168 6.520668268203735 C 32.719162940979004 9.436074495315552 32.719162940979004 14.179638624191284 29.768733024597168 17.094639539718628 Z M 11.255411148071289 7.344565391540527 C 11.253503799438477 7.344565391540527 11.253503799438477 7.345578670501709 11.251238822937012 7.345578670501709 C 8.906868934631348 7.347402572631836 7.005361557006836 9.245882034301758 7.005361557006836 11.587975025177002 C 7.005361557006836 11.587975025177002 7.005361557006836 11.587975025177002 7.005361557006836 11.587975025177002 C 7.005361557006836 11.863890886306763 7.228878974914551 12.087116241455078 7.5053253173828125 12.087116241455078 C 7.781890869140625 12.087116241455078 8.00540828704834 11.863890886306763 8.00540828704834 11.587975025177002 C 8.00540828704834 11.587975025177002 8.00540828704834 11.587063074111938 8.00540828704834 11.587063074111938 C 8.00540828704834 9.795788526535034 9.460596084594727 8.34284782409668 11.254338264465332 8.34284782409668 C 11.254338264465332 8.34284782409668 11.255411148071289 8.34284782409668 11.255411148071289 8.34284782409668 C 11.53185749053955 8.34284782409668 11.755374908447266 8.119622468948364 11.755374908447266 7.8437066078186035 C 11.755374908447266 7.567892074584961 11.53185749053955 7.344565391540527 11.255411148071289 7.344565391540527 Z"></path>
        </g>
    </symbol>
    <symbol id="arrow" viewBox="0.21246337890625 0 23.57503318786621 41">
        <g>
            <path fill="#d4d4d4" stroke="none" fill-rule="evenodd" d=" M 2.0023231506347656 6.02410626411438 C 2.0023231506347656 6.02410626411438 17.065608978271484 20.99368166923523 17.065608978271484 20.99368166923523 C 17.065608978271484 20.99368166923523 1.805389404296875 36.15922522544861 1.805389404296875 36.15922522544861 C 1.805389404296875 36.15922522544861 1.8061046600341797 36.16013717651367 1.8061046600341797 36.16013717651367 C 1.307332992553711 36.673869609832764 1.0000114440917969 37.37262678146362 1.0000114440917969 38.143022775650024 C 1.0000114440917969 39.72100210189819 2.2873525619506836 41.0001654624939 3.8749818801879883 41.0001654624939 C 4.650199890136719 41.0001654624939 5.353296279907227 40.69466185569763 5.870306968688965 40.19896578788757 C 5.870306968688965 40.19896578788757 5.87114143371582 40.19987773895264 5.87114143371582 40.19987773895264 C 5.87114143371582 40.19987773895264 23.12120246887207 23.056920289993286 23.12120246887207 23.056920289993286 C 23.12120246887207 23.056920289993286 23.120368003845215 23.05621099472046 23.120368003845215 23.05621099472046 C 23.662412643432617 22.536601543426514 24.00013256072998 21.80764865875244 24.00013256072998 20.999963998794556 C 24.00013256072998 20.99803876876831 23.99989414215088 20.99591088294983 23.99989414215088 20.99368166923523 C 23.99989414215088 20.991553783416748 24.00013256072998 20.989628553390503 24.00013256072998 20.98750066757202 C 24.00013256072998 20.179816007614136 23.662412643432617 19.451167106628418 23.120368003845215 18.931456327438354 C 23.120368003845215 18.931456327438354 23.12120246887207 18.93054437637329 23.12120246887207 18.93054437637329 C 23.12120246887207 18.93054437637329 5.87114143371582 1.7874855995178223 5.87114143371582 1.7874855995178223 C 5.87114143371582 1.7874855995178223 5.863750457763672 1.7949838638305664 5.863750457763672 1.7949838638305664 C 5.3473358154296875 1.3030369281768799 4.646981239318848 1.0000665187835693 3.8749818801879883 1.0000665187835693 C 2.2873525619506836 1.0000665187835693 1.0000114440917969 2.2791285514831543 1.0000114440917969 3.8572092056274414 C 1.0000114440917969 4.724069356918335 1.388991355895996 5.500038385391235 2.0023231506347656 6.02410626411438 Z"></path>
        </g>
    </symbol>
</svg>

<svg display="none" xmlns="http://www.w3.org/2000/svg">
    <symbol id="burger" viewBox="0 0.417 61 10.167" width="61px" height="11px">
        <path fill="#3687C4" fill-rule="evenodd" d="M1 1h60v10H1V1z"/>
    </symbol>
    <symbol id="divide" viewBox="0.4791259765625 0 1.0416667461395264 25">
        <g>
            <path fill="#bcbec3" stroke="none" fill-rule="evenodd" d=" M 1.000077247619629 1.0001542568206787 C 1.000077247619629 1.0001542568206787 2.000004768371582 1.0001542568206787 2.000004768371582 1.0001542568206787 C 2.000004768371582 1.0001542568206787 2.000004768371582 25.00007176399231 2.000004768371582 25.00007176399231 C 2.000004768371582 25.00007176399231 1.000077247619629 25.00007176399231 1.000077247619629 25.00007176399231 C 1.000077247619629 25.00007176399231 1.000077247619629 1.0001542568206787 1.000077247619629 1.0001542568206787 Z"></path>
        </g>
    </symbol>
    <symbol id="ampersand" viewBox="623.249 576.992 87.247 90.187">
        <g>
            <path fill="#bbedff" stroke="none" fill-rule="evenodd" d=" M 692.4343109130859 648.3976125717163 C 695.6342458724976 644.437313079834 698.4947919845581 639.8871839046478 701.0149955749512 634.7463130950928 C 703.5351991653442 629.6067595481873 705.5153846740723 624.3355810642242 706.9554328918457 618.9351081848145 C 706.9554328918457 618.9351081848145 687.8739595413208 618.9351081848145 687.8739595413208 618.9351081848145 C 685.7935190200806 626.2959718704224 683.3332777023315 632.3163688182831 680.4933547973633 636.9967043399811 C 680.4933547973633 636.9967043399811 663.4520292282104 620.3751802444458 663.4520292282104 620.3751802444458 C 669.6118116378784 616.8152272701263 674.0728616714478 613.064980506897 676.8330335617065 609.1242372989655 C 679.5933246612549 605.1847100257874 680.9734106063843 600.834196805954 680.9734106063843 596.073305606842 C 680.9734106063843 590.2736008167267 678.7428855895996 585.6429159641266 674.2829084396362 582.1822643280029 C 669.8218584060669 578.7226259708405 663.8720035552979 576.9919455051422 656.4314365386963 576.9919455051422 C 648.6308574676514 576.9919455051422 642.3996686935425 578.8521230220795 637.739896774292 582.5723767280579 C 633.0792903900146 586.2927317619324 630.7493448257446 591.1934554576874 630.7493448257446 597.2733318805695 C 630.7493448257446 600.993686914444 631.4291954040527 604.4243454933167 632.7896118164062 607.5642943382263 C 634.1490745544434 610.705155134201 636.3298892974854 613.9950692653656 639.3300294876099 617.4351513385773 C 633.4496736526489 620.7951843738556 629.2989253997803 624.4059026241302 626.879096031189 628.2659888267517 C 624.4583129882812 632.126784324646 623.248815536499 636.7970883846283 623.248815536499 642.2770023345947 C 623.248815536499 649.9184429645538 626.1084079742432 655.978661775589 631.8295001983643 660.4584693908691 C 637.549638748169 664.9390876293182 645.2902555465698 667.1791434288025 655.0513505935669 667.1791434288025 C 664.6914482116699 667.1791434288025 673.3322143554688 664.5190834999084 680.9734106063843 659.1982543468475 C 680.9734106063843 659.1982543468475 687.8739595413208 665.9788131713867 687.8739595413208 665.9788131713867 C 687.8739595413208 665.9788131713867 710.4957103729248 665.9788131713867 710.4957103729248 665.9788131713867 C 710.4957103729248 665.9788131713867 692.4343109130859 648.3976125717163 692.4343109130859 648.3976125717163 Z M 644.5205211639404 633.8764131069183 C 645.8603143692017 631.956148147583 647.6904153823853 630.1168441772461 650.0109434127808 628.3559679985046 C 650.0109434127808 628.3559679985046 669.93248462677 648.1575667858124 669.93248462677 648.1575667858124 C 665.8915281295776 650.5981504917145 661.3517999649048 651.8178343772888 656.3113927841187 651.8178343772888 C 652.2704362869263 651.8178343772888 648.9608287811279 650.7977664470673 646.3806629180908 648.7576305866241 C 643.8003778457642 646.717494726181 642.5102949142456 643.977689743042 642.5102949142456 640.5369997024536 C 642.5102949142456 638.0167722702026 643.1797742843628 635.7965767383575 644.5205211639404 633.8764131069183 Z M 661.2918376922607 604.5040905475616 C 659.4513654708862 606.3642680644989 656.8111181259155 608.254337310791 653.3712148666382 610.1745009422302 C 649.5702266693115 605.9348404407501 647.6707458496094 602.0541846752167 647.6707458496094 598.533445596695 C 647.6707458496094 596.173620223999 648.4404802322388 594.3538725376129 649.980902671814 593.0731892585754 C 651.5203714370728 591.793417930603 653.6308526992798 591.1529242992401 656.3113927841187 591.1529242992401 C 658.591628074646 591.1529242992401 660.4517698287964 591.7632222175598 661.8918180465698 592.9832100868225 C 663.3319854736328 594.2038059234619 664.0520095825195 595.8736896514893 664.0520095825195 597.9935705661774 C 664.0520095825195 600.4742801189423 663.1313562393188 602.6439130306244 661.2918376922607 604.5040905475616 Z"></path>
        </g>
    </symbol>
    <symbol id="slide1" viewBox="0 0.5845947265625 33 28.83089256286621">
       <g>
            <path fill="#adff63" stroke="none" fill-rule="evenodd" d=" M 31.19564151763916 5.111703872680664 C 27.565957069396973 1.5215551853179932 21.76404094696045 1.4465725421905518 18.003583908081055 4.824033975601196 C 14.243722915649414 1.4465725421905518 8.442879676818848 1.5215551853179932 4.811764717102051 5.111703872680664 C 1.0707387924194336 8.809969425201416 1.0707387924194336 14.805439710617065 4.811764717102051 18.50461721420288 C 5.881429672241211 19.56166982650757 15.864969253540039 29.42979097366333 15.864969253540039 29.42979097366333 C 17.04752540588379 30.59870958328247 18.960476875305176 30.59870958328247 20.143033027648926 29.42979097366333 C 20.143033027648926 29.42979097366333 31.074524879455566 18.624792098999023 31.19564151763916 18.50461721420288 C 34.93666744232178 14.805439710617065 34.93666744232178 8.809969425201416 31.19564151763916 5.111703872680664 Z M 29.76870632171631 17.094639539718628 C 29.76870632171631 17.094639539718628 18.716217041015625 28.019914627075195 18.716217041015625 28.019914627075195 C 18.323780059814453 28.409115076065063 17.682910919189453 28.409115076065063 17.291189193725586 28.019914627075195 C 17.291189193725586 28.019914627075195 6.238699913024902 17.094639539718628 6.238699913024902 17.094639539718628 C 3.288508415222168 14.179638624191284 3.288508415222168 9.436074495315552 6.238699913024902 6.520668268203735 C 9.08255672454834 3.709629774093628 13.654709815979004 3.6112403869628906 16.64793586730957 6.299368143081665 C 16.64793586730957 6.299368143081665 18.003583908081055 7.517126798629761 18.003583908081055 7.517126798629761 C 18.003583908081055 7.517126798629761 19.359827995300293 6.299368143081665 19.359827995300293 6.299368143081665 C 22.35305404663086 3.6112403869628906 26.92616081237793 3.709629774093628 29.76870632171631 6.520668268203735 C 32.719136238098145 9.436074495315552 32.719136238098145 14.179638624191284 29.76870632171631 17.094639539718628 Z M 11.25538444519043 7.344565391540527 C 11.253477096557617 7.344565391540527 11.253477096557617 7.345578670501709 11.251331329345703 7.345578670501709 C 8.906842231750488 7.347402572631836 7.005334854125977 9.245882034301758 7.005334854125977 11.587975025177002 C 7.005334854125977 11.587975025177002 7.005334854125977 11.587975025177002 7.005334854125977 11.587975025177002 C 7.005334854125977 11.863890886306763 7.228852272033691 12.087116241455078 7.505417823791504 12.087116241455078 C 7.781864166259766 12.087116241455078 8.00538158416748 11.863890886306763 8.00538158416748 11.587975025177002 C 8.00538158416748 11.587975025177002 8.00538158416748 11.587063074111938 8.00538158416748 11.587063074111938 C 8.00538158416748 9.795788526535034 9.460569381713867 8.34284782409668 11.254311561584473 8.34284782409668 C 11.254311561584473 8.34284782409668 11.25538444519043 8.34284782409668 11.25538444519043 8.34284782409668 C 11.531830787658691 8.34284782409668 11.755348205566406 8.119622468948364 11.755348205566406 7.8437066078186035 C 11.755348205566406 7.567892074584961 11.531830787658691 7.344565391540527 11.25538444519043 7.344565391540527 Z"></path>
       </g>
    </symbol>
    <symbol id="slide2" viewBox="0 0.585 33 28.831">
        <path fill-rule="evenodd" d="M31.196 5.112c-3.63-3.59-9.432-3.665-13.192-.288-3.76-3.377-9.561-3.302-13.192.288a9.394 9.394 0 0 0 0 13.393L15.865 29.43a3.048 3.048 0 0 0 4.278 0l11.053-10.925a9.394 9.394 0 0 0 0-13.393zm-1.427 11.983L18.716 28.02c-.392.39-1.033.39-1.425 0L6.24 17.095a7.423 7.423 0 0 1 0-10.574c2.844-2.811 7.416-2.91 10.409-.222l1.356 1.218L19.36 6.3c2.993-2.688 7.566-2.59 10.409.222a7.422 7.422 0 0 1 0 10.574zm-18.514-9.75h-.004a4.246 4.246 0 0 0-4.246 4.243.5.5 0 0 0 1 0 3.247 3.247 0 0 1 3.25-3.245.5.5 0 1 0 0-.998z"/>
    </symbol>
    <symbol id="arrow" viewBox="0.21246337890625 0 23.57503318786621 41">
        <g>
            <path fill="#d4d4d4" stroke="none" fill-rule="evenodd" d=" M 2.0023231506347656 6.02410626411438 C 2.0023231506347656 6.02410626411438 17.065608978271484 20.99368166923523 17.065608978271484 20.99368166923523 C 17.065608978271484 20.99368166923523 1.805389404296875 36.15922522544861 1.805389404296875 36.15922522544861 C 1.805389404296875 36.15922522544861 1.8061046600341797 36.16013717651367 1.8061046600341797 36.16013717651367 C 1.307332992553711 36.673869609832764 1.0000114440917969 37.37262678146362 1.0000114440917969 38.143022775650024 C 1.0000114440917969 39.72100210189819 2.2873525619506836 41.0001654624939 3.8749818801879883 41.0001654624939 C 4.650199890136719 41.0001654624939 5.353296279907227 40.69466185569763 5.870306968688965 40.19896578788757 C 5.870306968688965 40.19896578788757 5.87114143371582 40.19987773895264 5.87114143371582 40.19987773895264 C 5.87114143371582 40.19987773895264 23.12120246887207 23.056920289993286 23.12120246887207 23.056920289993286 C 23.12120246887207 23.056920289993286 23.120368003845215 23.05621099472046 23.120368003845215 23.05621099472046 C 23.662412643432617 22.536601543426514 24.00013256072998 21.80764865875244 24.00013256072998 20.999963998794556 C 24.00013256072998 20.99803876876831 23.99989414215088 20.99591088294983 23.99989414215088 20.99368166923523 C 23.99989414215088 20.991553783416748 24.00013256072998 20.989628553390503 24.00013256072998 20.98750066757202 C 24.00013256072998 20.179816007614136 23.662412643432617 19.451167106628418 23.120368003845215 18.931456327438354 C 23.120368003845215 18.931456327438354 23.12120246887207 18.93054437637329 23.12120246887207 18.93054437637329 C 23.12120246887207 18.93054437637329 5.87114143371582 1.7874855995178223 5.87114143371582 1.7874855995178223 C 5.87114143371582 1.7874855995178223 5.863750457763672 1.7949838638305664 5.863750457763672 1.7949838638305664 C 5.3473358154296875 1.3030369281768799 4.646981239318848 1.0000665187835693 3.8749818801879883 1.0000665187835693 C 2.2873525619506836 1.0000665187835693 1.0000114440917969 2.2791285514831543 1.0000114440917969 3.8572092056274414 C 1.0000114440917969 4.724069356918335 1.388991355895996 5.500038385391235 2.0023231506347656 6.02410626411438 Z"></path>
        </g>
    </symbol>
</svg>
